X: 6066
T: Cappacon Chase, The
R: jig
M: 6/8
K: Gmajor
|:dc|BdB GBG|DGB dBd|cAF cAF|edc BdB|
cBA GBG|DGB dBd|ceg fdB|1 cAF G:|2 cAF G2||
|:A|BAB GBd|Bdg dgB|cBc AFD|cfa gdB|
cBA GBd|Bdg dgB|ceg fdB|cAF G2:|
|:A|BAB GED|GBA GED|cBc AFD|FAG FED|
BAB GED|GBD GFE|,CEG FED|FAD G2:|

